images/notification-icon.svg

<svg width="42" height="42" viewBox="0 0 42 42" fill="none" xmlns="http://www.w3.org/2000/svg">
<g clip-path="url(#clip0)">
<path d="M34.5966 20.3793C33.3183 18.8865 32.7374 17.5929 32.7374 15.395V14.6477C32.7374 11.7837 32.0782 9.93837 30.6451 8.09303C28.4363 5.22723 24.7177 3.5 21.0774 3.5H20.9227C17.3589 3.5 13.7569 5.14792 11.5098 7.8974C9.99833 9.77974 9.26263 11.7044 9.26263 14.6477V15.395C9.26263 17.5929 8.71997 18.8865 7.40336 20.3793C6.43459 21.4791 6.125 22.8926 6.125 24.4225C6.125 25.9541 6.62765 27.4046 7.63642 28.5838C8.95304 29.9973 10.8123 30.8996 12.7116 31.0565C15.4613 31.3701 18.211 31.4883 21.0009 31.4883C23.789 31.4883 26.5388 31.2909 29.2901 31.0565C31.1876 30.8996 33.047 29.9973 34.3635 28.5838C35.3707 27.4046 35.875 25.9541 35.875 24.4225C35.875 22.8926 35.5654 21.4791 34.5966 20.3793Z" fill="#99BAED"/>
<path opacity="0.4" d="M24.5152 33.6497C23.6403 33.4628 18.3095 33.4628 17.4346 33.6497C16.6868 33.8224 15.878 34.2242 15.878 35.1055C15.9215 35.9462 16.4137 36.6882 17.0955 37.1588L17.0937 37.1605C17.9756 37.8479 19.0104 38.2849 20.094 38.4419C20.6715 38.5212 21.2593 38.5177 21.8576 38.4419C22.9395 38.2849 23.9742 37.8479 24.8561 37.1605L24.8543 37.1588C25.5361 36.6882 26.0284 35.9462 26.0718 35.1055C26.0718 34.2242 25.2631 33.8224 24.5152 33.6497Z" fill="#AEAEAE"/>
<circle cx="29.5686" cy="7.55395" r="7.95443" transform="rotate(-0.887255 29.5686 7.55395)" fill="#FF5050" stroke="white"/>
<path d="M29.3749 5.24208C28.6683 5.25303 28.0278 5.4363 27.4532 5.79191L27.6993 6.82822C28.2873 6.47907 28.8079 6.30099 29.2612 6.29397C29.5945 6.28881 29.8588 6.35139 30.0542 6.48171C30.2561 6.60527 30.359 6.79036 30.3628 7.037C30.3658 7.23031 30.289 7.43819 30.1325 7.66064C29.9759 7.88309 29.7266 8.14365 29.3845 8.44232L27.3913 10.1934L27.4048 11.0633L31.8243 10.9948L31.689 10.0068L29.1593 10.046L30.0969 9.24138C30.6035 8.80015 30.9577 8.42129 31.1595 8.10479C31.3612 7.7883 31.4587 7.41008 31.4519 6.97013C31.4468 6.63684 31.3588 6.33816 31.188 6.07411C31.0172 5.81005 30.7773 5.60374 30.4683 5.45518C30.1593 5.30661 29.7949 5.23558 29.3749 5.24208Z" fill="white"/>
</g>
<defs>
<clipPath id="clip0">
<rect width="42" height="42" fill="white"/>
</clipPath>
</defs>
</svg>

<svg width="42" height="42" fill="none" xmlns="http://www.w3.org/2000/svg"><g clip-path="url(#clip0)"><path d="M34.597 20.38c-1.279-1.493-1.86-2.787-1.86-4.985v-.747c0-2.864-.659-4.71-2.092-6.555C28.436 5.227 24.718 3.5 21.077 3.5h-.154c-3.564 0-7.166 1.648-9.413 4.397-1.512 1.883-2.247 3.807-2.247 6.75v.748c0 2.198-.543 3.492-1.86 4.984-.968 1.1-1.278 2.514-1.278 4.043 0 1.532.503 2.983 1.511 4.162a7.931 7.931 0 005.076 2.473c2.75.313 5.499.431 8.289.431 2.788 0 5.538-.197 8.29-.431a7.93 7.93 0 005.073-2.473c1.007-1.18 1.511-2.63 1.511-4.162 0-1.53-.31-2.943-1.278-4.043z" fill="#99BAED"/><path opacity=".4" d="M24.515 33.65c-.875-.187-6.206-.187-7.08 0-.748.172-1.557.574-1.557 1.456.043.84.536 1.582 1.218 2.053l-.002.002a6.364 6.364 0 003 1.28c.578.08 1.165.077 1.764 0a6.364 6.364 0 002.998-1.28l-.002-.002c.682-.47 1.174-1.213 1.218-2.053 0-.882-.809-1.284-1.557-1.456z" fill="#AEAEAE"/><circle cx="29.569" cy="7.554" r="7.954" transform="rotate(-.887 29.569 7.554)" fill="#FF5050" stroke="#fff"/><path d="M29.375 5.242a3.69 3.69 0 00-1.922.55l.246 1.036c.588-.349 1.109-.527 1.562-.534.334-.005.598.057.793.188a.621.621 0 01.309.555c.003.193-.074.401-.23.624-.157.222-.406.483-.748.781l-1.994 1.751.014.87 4.42-.068-.136-.988-2.53.039.938-.805c.506-.44.86-.82 1.063-1.136.201-.317.299-.695.292-1.135a1.662 1.662 0 00-.264-.896c-.17-.264-.41-.47-.72-.619-.309-.148-.673-.22-1.093-.213z" fill="#fff"/></g><defs><clipPath id="clip0"><path fill="#fff" d="M0 0h42v42H0z"/></clipPath></defs></svg>
